X: 2166
T:Simo Ligeri
O:Greece
M:2/4
L:1/8
A:Macedonia
K:Am
"Am"A2 cc/B/|AA/A/ AE|AA cc/B/|1 A3z :|2 A3f|\
"Dm"dd dd|(3d/e/d/c c/B/A|\
|:"Am"AA "E"^GF/E/|"Am"AA "E"^GF/E/|\
^GF/E/ "F"DC/D/|"e7"E4 :|
